src/img/icons/briefcase-solid.svg

<svg xmlns="http://www.w3.org/2000/svg" viewBox="0 0 512 512"><!--! Font Awesome Pro 6.4.2 by @fontawesome - https://fontawesome.com License - https://fontawesome.com/license (Commercial License) Copyright 2023 Fonticons, Inc.--><path d="M184 48h144c4.4 0 8 3.6 8 8v40H176V56c0-4.4 3.6-8 8-8m-56 8v40H64c-35.3 0-64 28.7-64 64v96h512v-96c0-35.3-28.7-64-64-64h-64V56c0-30.9-25.1-56-56-56H184c-30.9 0-56 25.1-56 56m384 232H320v32c0 17.7-14.3 32-32 32h-64c-17.7 0-32-14.3-32-32v-32H0v128c0 35.3 28.7 64 64 64h384c35.3 0 64-28.7 64-64z"/></svg>

<svg xmlns="http://www.w3.org/2000/svg" viewBox="0 0 512 512"><!--! Font Awesome Pro 6.4.2 by @fontawesome - https://fontawesome.com License - https://fontawesome.com/license (Commercial License) Copyright 2023 Fonticons, Inc. --><path d="M184 48H328c4.4 0 8 3.6 8 8V96H176V56c0-4.4 3.6-8 8-8zm-56 8V96H64C28.7 96 0 124.7 0 160v96H192 320 512V160c0-35.3-28.7-64-64-64H384V56c0-30.9-25.1-56-56-56H184c-30.9 0-56 25.1-56 56zM512 288H320v32c0 17.7-14.3 32-32 32H224c-17.7 0-32-14.3-32-32V288H0V416c0 35.3 28.7 64 64 64H448c35.3 0 64-28.7 64-64V288z"/></svg>
